ui/src/assets/icons/item-categories/item_cat_sword.svg

<svg xmlns="http://www.w3.org/2000/svg" viewBox="0 0 512 512"><path d="M0 0h512v512H0z"/><path fill="#fff" d="M59.563 22.22c-19.707 5.93-33.054 18.817-39.407 39.436 52.72 22.56 98.5 67.61 122.188 119.97L83.75 240.218l14.47 14.436 155.968-155.97L239.75 84.22l-60.188 60.186c-25.63-11.673-49.807-28.375-70.218-48.78C87.88 74.167 71.057 49.08 59.564 22.218zm172.062 125.436-36.47 36.47 58.126 58.905 61.94 61.94 62.374 61.56 61.125 61.94 56.967 56.217V411.72L231.625 147.655zm-52.156 52.156-31.345 31.375 262.438 262.438h24.343l-9.406-51.938-52.438-9.5-9.093-52.03-52.47-9.5-9.47-52.47-52.467-9.5-9.5-52.437-52.032-9.094-8.56-47.344z"/></svg>

<svg xmlns="http://www.w3.org/2000/svg" viewBox="0 0 512 512">
    <path d="M0 0h512v512H0z" />

    <!-- First subpath (upper left - crossguard and pommel) -->
    <path fill="#fff" data-channel="guard"
        d="M59.563 22.22C39.856 28.15 26.509 41.037 20.156 61.656 72.876 84.216 118.656 129.266 142.344 181.626L83.75 240.218 98.22 254.654 254.188 98.684 239.75 84.22 179.562 144.406C153.932 132.733 129.755 116.031 109.344 95.626 87.88 74.167 71.057 49.08 59.564 22.218Z" />

    <!-- Second subpath (main blade body) -->
    <path fill="#fff" data-channel="blade"
        d="M231.625 147.656L195.155 184.126 253.281 243.031 315.221 304.971 377.595 366.531 438.72 428.471 495.687 484.688V411.72L231.625 147.655Z" />

    <!-- Third subpath (blade edge detail and fuller) -->
    <path fill="#fff" data-channel="edge"
        d="M179.469 199.812L148.124 231.187 410.562 493.625H434.905L425.499 441.687 373.061 432.187 363.968 380.157 311.498 370.657 302.028 318.187 249.561 308.687 240.061 256.25 188.029 247.156 179.469 199.812Z" />
</svg>
